; generated by Slic3r 1.2.9 on 2017-02-09 at 09:44:46

; external perimeters extrusion width = 0.40mm
; perimeters extrusion width = 0.48mm
; infill extrusion width = 0.48mm
; solid infill extrusion width = 0.48mm
; top infill extrusion width = 0.48mm

M127
M109 S45 ; set bed temperature
M104 S220 T0 ; set temperature
G28 ; home all axes
G1 Z5 F5000 ; lift nozzle

M73 P0
G1 Z0.400 F7800.000
G1 E-2.00000 F2400.00000
M103 ; extruder off
G1 X71.706 Y66.992 F7800.000
M101 ; extruder on
G1 E0.00000 F2400.00000
G1 X72.093 Y66.585 E0.06663 F1800.000
G1 X72.422 Y66.278 E0.12017
G1 X72.993 Y65.814 E0.20748
G1 X73.478 Y65.477 E0.27770
G1 X73.870 Y65.239 E0.33215
G1 X74.520 Y64.902 E0.41903
G1 X74.940 Y64.720 E0.47349
G1 X75.499 Y64.516 E0.54413
G1 X76.203 Y64.319 E0.63100
G1 X76.787 Y64.202 E0.70167
G1 X77.241 Y64.140 E0.75612
G1 X77.834 Y64.094 E0.82676
G1 X122.029 Y64.090 E6.07559
M101 ; extruder on
G1 X122.765 Y64.140 E6.16322 F1800.000
G1 X123.348 Y64.225 E6.23321
G1 X123.797 Y64.319 E6.28756
G1 X124.501 Y64.516 E6.37445
G1 X125.060 Y64.720 E6.44510
G1 X125.480 Y64.902 E6.49954
G1 X126.130 Y65.239 E6.58642
G1 X126.641 Y65.555 E6.65779
G1 X127.119 Y65.899 E6.72774
G1 X127.475 Y66.188 E6.78218
G1 X128.012 Y66.690 E6.86957
G1 X128.412 Y67.125 E6.93971
G1 X128.701 Y67.481 E6.99418
G1 X129.123 Y68.079 E7.08105
G1 X129.428 Y68.589 E7.15167
G1 X129.639 Y68.996 E7.20615
G1 X129.880 Y69.540 E7.27677
G1 X130.125 Y70.230 E7.36370
G1 X130.281 Y70.803 E7.43432
G1 X130.375 Y71.252 E7.48877
G1 X130.474 Y71.977 E7.57566
G1 X130.514 Y72.800 E7.67352
G1 X130.514 Y127.200 E14.13435
G1 X130.460 Y128.165 E14.24917
G1 X130.375 Y128.748 E14.31907
G1 X130.281 Y129.197 E14.37354
G1 X130.084 Y129.900 E14.46023
G1 X129.880 Y130.460 E14.53107
G1 X129.639 Y131.004 E14.60169
G1 X129.428 Y131.411 E14.65616
G1 X129.123 Y131.922 E14.72682
G1 X128.701 Y132.519 E14.81367
G1 X128.317 Y132.983 E14.88525
G1 X127.913 Y133.409 E14.95501
G1 X127.578 Y133.722 E15.00946
G1 X127.011 Y134.183 E15.09619
G1 X126.521 Y134.523 E15.16700
G1 X126.011 Y134.828 E15.23765
G1 X125.604 Y135.039 E15.29213
G1 X125.060 Y135.280 E15.36273
G1 X124.371 Y135.525 E15.44963
G1 X123.796 Y135.681 E15.52033
G1 X123.204 Y135.799 E15.59205
G1 X122.623 Y135.874 E15.66160
G1 X122.166 Y135.906 E15.71607
G1 X78.200 Y135.914 E20.93766
G1 X77.377 Y135.874 E21.03554
G1 X76.652 Y135.775 E21.12240
G1 X76.072 Y135.649 E21.19291
G1 X75.629 Y135.525 E21.24749
G1 X74.940 Y135.280 E21.33440
G1 X74.396 Y135.039 E21.40501
G1 X73.871 Y134.762 E21.47556
G1 X73.479 Y134.523 E21.53012
G1 X72.990 Y134.184 E21.60081
G1 X72.414 Y133.715 E21.68898
G1 X71.991 Y133.313 E21.75833
G1 X71.678 Y132.978 E21.81277
G1 X71.212 Y132.404 E21.90052
G1 X70.877 Y131.922 E21.97029
G1 X70.639 Y131.530 E22.02478
G1 X70.361 Y131.004 E22.09542
G1 X70.119 Y130.460 E22.16610
G1 X69.916 Y129.901 E22.23673
G1 X69.751 Y129.329 E22.30739
G1 X69.602 Y128.614 E22.39415
G1 X69.526 Y128.023 E22.46491
G1 X69.489 Y127.421 E22.53654
G1 X69.486 Y72.800 E29.02364
G1 X69.526 Y71.977 E29.12152
G1 X69.626 Y71.250 E29.20860
G1 X69.752 Y70.668 E29.27935
G1 X69.916 Y70.099 E29.34970
G1 X70.069 Y69.667 E29.40414
G1 X70.302 Y69.120 E29.47482
G1 X70.639 Y68.470 E29.56167
G1 X70.877 Y68.078 E29.61613
G1 X71.216 Y67.590 E29.68678
G1 X71.666 Y67.036 E29.77146
G1 E27.77146 F2400.00000
M103 ; extruder off
G1 X121.946 Y127.357 F7800.000
M101 ; extruder on
G1 E29.77146 F2400.00000
G1 X121.738 Y127.372 E29.79626 F1800.000
G1 X78.262 Y127.372 E34.95959
G1 X78.054 Y127.357 E34.98438
G1 X78.028 Y127.106 E35.01437
G1 X78.028 Y72.894 E41.45295
G1 X78.053 Y72.653 E41.48165
G1 X78.294 Y72.628 E41.51042
G1 X121.945 Y72.633 E46.69463
G1 X121.972 Y72.894 E46.72577
G1 X121.972 Y127.106 E53.16433
G1 X121.952 Y127.298 E53.18719
G1 X77.504 Y72.258 F7800.000
M101 ; extruder on
G1 X77.645 Y72.117 E53.21084 F1800.000
G1 X77.811 Y72.008 E53.23450
G1 X78.001 Y71.941 E53.25843
G1 X78.257 Y71.914 E53.28902
G1 X121.859 Y71.919 E58.46743
G1 X122.151 Y71.993 E58.50312
G1 X122.307 Y72.081 E58.52450
G1 X122.443 Y72.199 E58.54587
G1 X122.552 Y72.343 E58.56726
G1 X122.637 Y72.522 E58.59081
G1 X122.686 Y72.857 E58.63104
G1 X122.686 Y127.143 E65.07829
G1 X122.660 Y127.398 E65.10877
G1 X122.592 Y127.589 E65.13280
G1 X122.483 Y127.755 E65.15646
G1 X122.355 Y127.883 E65.17783
G1 X122.205 Y127.981 E65.19921
G1 X122.020 Y128.054 E65.22286
G1 X121.762 Y128.086 E65.25368
G1 X78.238 Y128.086 E70.42280
G1 X78.099 Y128.076 E70.43938
G1 X77.811 Y127.992 E70.47498
G1 X77.645 Y127.883 E70.49864
G1 X77.504 Y127.742 E70.52229
G1 X77.399 Y127.569 E70.54632
G1 X77.338 Y127.379 E70.56998
G1 X77.314 Y127.143 E70.59817
G1 X77.314 Y72.857 E77.04544
G1 X77.363 Y72.522 E77.08560
G1 X77.469 Y72.307 E77.11411
G1 X76.920 Y71.846 F7800.000
M101 ; extruder on
G1 X77.192 Y71.560 E77.16091 F1800.000
G1 X77.471 Y71.377 E77.20055
G1 X77.665 Y71.293 E77.22565
G1 X77.867 Y71.236 E77.25064
G1 X78.221 Y71.200 E77.29284
G1 X121.908 Y71.205 E82.48140
M101 ; extruder on
G1 X122.119 Y71.233 E82.50664 F1800.000
G1 X122.437 Y71.334 E82.54626
G1 X122.721 Y71.495 E82.58507
G1 X122.968 Y71.709 E82.62389
G1 X123.165 Y71.970 E82.66270
G1 X123.308 Y72.270 E82.70222
G1 X123.364 Y72.468 E82.72663
G1 X123.400 Y72.821 E82.76870
G1 X123.400 Y127.179 E89.22466
G1 X123.364 Y127.532 E89.26674
G1 X123.307 Y127.735 E89.29184
G1 X123.223 Y127.929 E89.31695
G1 X123.040 Y128.208 E89.35658
G1 X122.808 Y128.440 E89.39539
G1 X122.535 Y128.619 E89.43421
G1 X122.225 Y128.741 E89.47384
G1 X122.018 Y128.784 E89.49894
G1 X121.786 Y128.800 E89.52649
G1 X78.214 Y128.800 E94.70141
G1 X77.989 Y128.785 E94.72814
G1 X77.658 Y128.704 E94.76859
G1 X77.471 Y128.623 E94.79288
G1 X77.192 Y128.440 E94.83251
G1 X76.956 Y128.204 E94.87214
G1 X76.834 Y128.031 E94.89725
G1 X76.736 Y127.843 E94.92235
G1 X76.636 Y127.525 E94.96198
G1 X76.600 Y127.179 E95.00325
G1 X76.600 Y72.820 E101.45920
G1 X76.636 Y72.469 E101.50117
G1 X76.691 Y72.271 E101.52558
G1 X76.886 Y71.895 E101.57581
G1 X77.310 Y71.904 F7800.000
G1 X121.536 Y73.411 F7800.000
M101 ; extruder on
G1 X121.193 Y73.068 E101.63360 F1800.000
G1 X120.180 Y73.068 E101.75433
G1 X121.536 Y74.425 E101.98286
G1 X121.536 Y75.438 E102.10358
G1 X119.167 Y73.068 E102.50285
G1 X118.153 Y73.068 E102.62358
G1 X121.536 Y76.451 E103.19359
G1 X121.536 Y77.464 E103.31431
G1 X117.140 Y73.068 E104.05506
G1 X116.127 Y73.068 E104.17579
G1 X121.536 Y78.477 E105.08727
G1 X121.536 Y79.491 E105.20799
G1 X115.113 Y73.068 E106.29021
G1 X114.100 Y73.068 E106.41094
G1 X121.536 Y80.504 E107.66391
G1 X121.536 Y81.517 E107.78462
G1 X113.087 Y73.068 E109.20833
G1 X112.073 Y73.067 E109.32906
G1 X121.536 Y82.530 E110.92350
G1 X121.536 Y83.543 E111.04421
G1 X111.060 Y73.067 E112.80939
G1 X110.047 Y73.067 E112.93012
G1 X121.536 Y84.557 E114.86604
G1 X121.536 Y85.570 E114.98676
G1 X109.033 Y73.067 E117.09341
G1 X108.020 Y73.067 E117.21414
G1 X121.536 Y86.583 E119.49154
G1 X121.536 Y87.596 E119.61226
G1 X107.007 Y73.067 E122.06039
G1 X105.994 Y73.067 E122.18112
G1 X121.536 Y88.609 E124.79999
G1 X121.536 Y89.623 E124.92071
G1 X104.980 Y73.067 E127.71032
G1 X103.967 Y73.067 E127.83105
G1 X121.536 Y90.636 E130.79140
G1 X121.536 Y91.649 E130.91212
G1 X102.954 Y73.066 E134.04320
G1 X101.940 Y73.066 E134.16393
G1 X121.536 Y92.662 E137.46576
G1 X121.536 Y93.675 E137.58648
G1 X100.927 Y73.066 E141.05904
G1 X99.914 Y73.066 E141.17977
G1 X121.536 Y94.689 E144.82307
G1 X121.536 Y95.702 E144.94379
G1 X98.900 Y73.066 E148.75783
G1 X97.887 Y73.066 E148.87856
G1 X121.536 Y96.715 E152.86334
G1 X121.536 Y97.728 E152.98406
G1 X96.874 Y73.066 E157.13958
G1 X95.860 Y73.066 E157.26031
G1 X121.536 Y98.741 E161.58657
G1 X121.536 Y99.755 E161.70728
G1 X94.847 Y73.066 E166.20428
G1 X93.834 Y73.066 E166.32501
G1 X121.536 Y100.768 E170.99274
G1 X121.536 Y101.781 E171.11346
G1 X92.821 Y73.065 E175.95193
G1 X91.807 Y73.065 E176.07266
G1 X121.536 Y102.794 E181.08188
G1 X121.536 Y103.807 E181.20259
G1 X90.794 Y73.065 E186.38254
G1 X89.781 Y73.065 E186.50327
G1 X121.536 Y104.821 E191.85396
G1 X121.536 Y105.834 E191.97468
G1 X88.767 Y73.065 E197.49611
G1 X87.754 Y73.065 E197.61684
G1 X121.536 Y106.847 E203.30900
G1 X121.536 Y107.860 E203.42972
G1 X86.741 Y73.065 E209.29262
G1 X85.727 Y73.065 E209.41335
G1 X121.536 Y108.873 E215.44700
G1 X121.536 Y109.887 E215.56771
G1 X84.714 Y73.065 E221.77209
G1 X83.701 Y73.064 E221.89283
G1 X121.536 Y110.900 E228.26794
G1 X121.536 Y111.913 E228.38866
G1 X82.687 Y73.064 E234.93452
G1 X81.674 Y73.064 E235.05525
G1 X121.536 Y112.926 E241.77185
G1 X121.536 Y113.939 E241.89257
G1 X80.661 Y73.064 E248.77990
G1 X79.648 Y73.064 E248.90063
G1 X121.536 Y114.953 E255.95870
G1 X121.536 Y115.966 E256.07942
G1 X78.634 Y73.064 E263.30823
G1 X78.464 Y73.907 E263.41068
G1 X121.536 Y116.979 E270.66820
G1 X121.536 Y117.992 E270.78892
G1 X78.464 Y74.920 E278.04644
G1 X78.464 Y75.933 E278.16716
G1 X121.536 Y119.005 E285.42468
G1 X121.536 Y120.019 E285.54539
G1 X78.464 Y76.946 E292.80291
G1 X78.464 Y77.960 E292.92363
G1 X121.536 Y121.032 E300.18115
G1 X121.536 Y122.045 E300.30187
G1 X78.464 Y78.973 E307.55938
G1 X78.464 Y79.986 E307.68010
G1 X121.536 Y123.058 E314.93762
G1 X121.536 Y124.071 E315.05834
G1 X78.464 Y80.999 E322.31586
G1 X78.464 Y82.012 E322.43657
G1 X121.536 Y125.085 E329.69409
G1 X121.536 Y126.098 E329.81481
G1 X78.464 Y83.026 E337.07233
G1 X78.464 Y84.039 E337.19305
G1 X121.361 Y126.936 E344.42109
G1 X120.348 Y126.936 E344.54181
G1 X78.464 Y85.052 E351.59914
G1 X78.464 Y86.065 E351.71986
G1 X119.335 Y126.936 E358.60646
G1 X118.322 Y126.936 E358.72718
G1 X78.464 Y87.078 E365.44307
G1 X78.464 Y88.092 E365.56378
G1 X117.308 Y126.936 E372.10895
G1 X116.295 Y126.936 E372.22967
G1 X78.464 Y89.105 E378.60411
G1 X78.464 Y90.118 E378.72483
G1 X115.282 Y126.936 E384.92855
G1 X114.269 Y126.936 E385.04927
G1 X78.464 Y91.131 E391.08228
G1 X78.464 Y92.144 E391.20299
G1 X113.256 Y126.936 E397.06528
G1 X112.242 Y126.936 E397.18600
G1 X78.464 Y93.158 E402.87756
G1 X78.464 Y94.171 E402.99828
G1 X111.229 Y126.936 E408.51912
G1 X110.216 Y126.936 E408.63984
G1 X78.464 Y95.184 E413.98996
G1 X78.464 Y96.197 E414.11068
G1 X109.203 Y126.936 E419.29008
G1 X108.190 Y126.936 E419.41080
G1 X78.464 Y97.210 E424.41948
G1 X78.464 Y98.224 E424.54019
G1 X107.176 Y126.936 E429.37815
G1 X106.163 Y126.936 E429.49887
G1 X78.464 Y99.237 E434.16611
G1 X78.464 Y100.250 E434.28683
G1 X105.150 Y126.936 E438.78335
G1 X104.137 Y126.936 E438.90407
G1 X78.464 Y101.263 E443.22987
G1 X78.464 Y102.276 E443.35058
G1 X103.124 Y126.936 E447.50566
G1 X102.110 Y126.936 E447.62638
G1 X78.464 Y103.290 E451.61074
G1 X78.464 Y104.303 E451.73146
G1 X101.097 Y126.936 E455.54509
G1 X100.084 Y126.936 E455.66581
G1 X78.464 Y105.316 E459.30873
G1 X78.464 Y106.329 E459.42945
G1 X99.071 Y126.936 E462.90164
G1 X98.058 Y126.936 E463.02236
G1 X78.464 Y107.342 E466.32384
G1 X78.464 Y108.356 E466.44455
G1 X97.044 Y126.936 E469.57531
G1 X96.031 Y126.936 E469.69603
G1 X78.464 Y109.369 E472.65606
G1 X78.464 Y110.382 E472.77678
G1 X95.018 Y126.936 E475.56610
G1 X94.005 Y126.936 E475.68681
G1 X78.464 Y111.395 E478.30541
G1 X78.464 Y112.408 E478.42613
G1 X92.992 Y126.936 E480.87400
G1 X91.978 Y126.936 E480.99472
G1 X78.464 Y113.422 E483.27187
G1 X78.464 Y114.435 E483.39259
G1 X90.965 Y126.936 E485.49902
G1 X89.952 Y126.936 E485.61974
G1 X78.464 Y115.448 E487.55545
G1 X78.464 Y116.461 E487.67617
G1 X88.939 Y126.936 E489.44116
G1 X87.926 Y126.936 E489.56188
G1 X78.464 Y117.474 E491.15615
G1 X78.464 Y118.488 E491.27687
G1 X86.912 Y126.936 E492.70042
G1 X85.899 Y126.936 E492.82114
G1 X78.464 Y119.501 E494.07397
G1 X78.464 Y120.514 E494.19468
G1 X84.886 Y126.936 E495.27679
G1 X83.873 Y126.936 E495.39751
G1 X78.464 Y121.527 E496.30890
G1 X78.464 Y122.540 E496.42962
G1 X82.860 Y126.936 E497.17029
G1 X81.846 Y126.936 E497.29101
G1 X78.464 Y123.554 E497.86095
G1 X78.464 Y124.567 E497.98167
G1 X80.833 Y126.936 E498.38090
G1 X79.820 Y126.936 E498.50162
G1 X78.464 Y125.580 E498.73012
G1 X78.464 Y126.593 E498.85084
G1 X78.807 Y126.936 E498.90863
M104 S215 T0 ; set temperature
M140 S40 ; wait for bed temperature to be reached
M73 P1
G1 Z0.700 F7800.000
G1 X77.422 Y72.175 F7800.000
M101 ; extruder on
G1 X77.570 Y72.025 E498.91963 F3600.000
G1 X77.755 Y71.904 E498.93120
G1 X77.980 Y71.824 E498.94367
G1 X78.251 Y71.796 E498.95792
G1 X121.866 Y71.801 E501.23657
M101 ; extruder on
G1 X121.987 Y71.817 E501.24297 F3600.000
G1 X122.198 Y71.884 E501.25451
G1 X122.376 Y71.984 E501.26518
G1 X122.530 Y72.118 E501.27585
G1 X122.653 Y72.281 E501.28653
G1 X122.748 Y72.481 E501.29809
G1 X122.776 Y72.580 E501.30345
G1 X122.804 Y72.851 E501.31770
G1 X122.804 Y127.149 E504.15450
G1 X122.776 Y127.418 E504.16862
G1 X122.743 Y127.536 E504.17501
G1 X122.696 Y127.645 E504.18123
G1 X122.575 Y127.830 E504.19279
G1 X122.430 Y127.975 E504.20347
G1 X122.259 Y128.087 E504.21414
G1 X122.053 Y128.168 E504.22570
G1 X121.766 Y128.204 E504.24084
G1 X78.251 Y128.204 E506.51429
G1 X77.982 Y128.176 E506.52841
G1 X77.755 Y128.096 E506.54099
G1 X77.570 Y127.975 E506.55255
G1 X77.425 Y127.830 E506.56323
G1 X77.304 Y127.645 E506.57479
G1 X77.256 Y127.535 E506.58105
G1 X77.225 Y127.422 E506.58717
G1 X77.196 Y127.148 E506.60156
G1 X77.196 Y72.851 E509.43832
G1 X77.224 Y72.580 E509.45257
G1 X77.256 Y72.465 E509.45882
G1 X77.389 Y72.225 E509.47311
G1 X77.072 Y71.946 F7800.000
M101 ; extruder on
G1 X77.304 Y71.699 E509.49082 F3600.000
G1 X77.555 Y71.534 E509.50651
G1 X77.724 Y71.461 E509.51613
G1 X77.901 Y71.411 E509.52575
G1 X78.230 Y71.377 E509.54299
G1 X121.894 Y71.382 E511.82425
M101 ; extruder on
G1 X122.080 Y71.407 E511.83403 F3600.000
G1 X122.366 Y71.498 E511.84970
G1 X122.619 Y71.640 E511.86487
G1 X122.838 Y71.831 E511.88004
G1 X123.013 Y72.062 E511.89521
G1 X123.142 Y72.334 E511.91090
G1 X123.189 Y72.501 E511.92000
G1 X123.223 Y72.830 E511.93724
G1 X123.223 Y127.171 E514.77628
G1 X123.189 Y127.496 E514.79339
G1 X123.139 Y127.676 E514.80315
G1 X123.066 Y127.845 E514.81275
G1 X122.901 Y128.096 E514.82844
G1 X122.696 Y128.301 E514.84361
G1 X122.453 Y128.461 E514.85878
G1 X122.174 Y128.571 E514.87447
G1 X121.994 Y128.608 E514.88409
G1 X121.780 Y128.623 E514.89526
G1 X78.229 Y128.623 E517.17057
G1 X77.904 Y128.589 E517.18767
G1 X77.724 Y128.539 E517.19744
G1 X77.555 Y128.466 E517.20704
G1 X77.304 Y128.301 E517.22273
G1 X77.099 Y128.096 E517.23790
G1 X76.934 Y127.845 E517.25359
G1 X76.861 Y127.676 E517.26321
G1 X76.812 Y127.501 E517.27269
G1 X76.777 Y127.170 E517.29008
G1 X76.777 Y72.830 E520.12910
G1 X76.811 Y72.501 E520.14634
G1 X76.861 Y72.324 E520.15596
G1 X76.934 Y72.155 E520.16558
G1 X77.039 Y71.996 E520.17554
G1 X76.756 Y71.739 F7800.000
M101 ; extruder on
G1 X76.805 Y71.665 E520.17924 F1800.000
G1 X77.065 Y71.405 E520.19464
G1 X77.375 Y71.201 E520.21019
G1 X77.597 Y71.104 E520.22033
G1 X77.831 Y71.039 E520.23046
G1 X78.210 Y71.000 E520.24644
G1 X121.920 Y71.005 E522.07614
M101 ; extruder on
G1 X122.163 Y71.038 E522.08640 F1800.000
G1 X122.517 Y71.150 E522.10194
G1 X122.837 Y71.330 E522.11735
G1 X123.115 Y71.572 E522.13275
G1 X123.337 Y71.865 E522.14815
G1 X123.497 Y72.201 E522.16370
G1 X123.561 Y72.431 E522.17369
G1 X123.600 Y72.810 E522.18967
G1 X123.600 Y127.190 E524.46601
G1 X123.561 Y127.567 E524.48187
G1 X123.496 Y127.803 E524.49213
G1 X123.399 Y128.025 E524.50226
G1 X123.195 Y128.335 E524.51781
G1 X122.935 Y128.595 E524.53321
G1 X122.628 Y128.797 E524.54861
G1 X122.282 Y128.934 E524.56416
G1 X122.045 Y128.983 E524.57430
G1 X121.793 Y129.000 E524.58486
G1 X78.210 Y129.000 E526.40926
G1 X77.833 Y128.961 E526.42512
G1 X77.597 Y128.896 E526.43538
G1 X77.375 Y128.799 E526.44551
G1 X77.065 Y128.595 E526.46106
G1 X76.805 Y128.335 E526.47646
G1 X76.601 Y128.025 E526.49200
G1 X76.504 Y127.803 E526.50214
G1 X76.440 Y127.572 E526.51216
G1 X76.400 Y127.190 E526.52826
G1 X76.400 Y72.810 E528.80460
G1 X76.439 Y72.431 E528.82058
G1 X76.504 Y72.197 E528.83071
G1 X76.601 Y71.975 E528.84085
G1 X76.723 Y71.789 E528.85018
G1 X76.844 Y71.744 F7800.000
G1 X77.954 Y72.145 F7800.000
M101 ; extruder on
G1 X77.545 Y72.554 E528.88052 F1200.000
G1 X77.443 Y73.249 E528.91734
